static/logo.svg

<svg fill="none" xmlns="http://www.w3.org/2000/svg" viewBox="0 0 153 50">
  <path d="M6.09323 7.79955C6.96387 3.27224 10.9253 0 15.5356 0H142.876c6.038 0 10.582 5.50116 9.442 11.4312l-5.917 30.7692C145.53 46.7278 141.569 50 136.958 50H9.61844C3.57972 50-.964327 44.4988.17607 38.5688L6.09323 7.79955z" fill="#000"/>
  <circle cx="28.1316" cy="25" fill="#fff" r="9"/>
  <path d="M52 33.974v-17.82h4.422c1.0707 0 1.9213.198 2.552.594.6453.3813 1.1147.9387 1.408 1.672.2933.7333.44 1.6207.44 2.662 0 .9387-.1687 1.7527-.506 2.442-.3227.6893-.8067 1.2247-1.452 1.606-.6453.3667-1.452.55-2.42.55h-1.958v8.294H52zm2.486-10.076h1.144c.7187 0 1.2833-.0807 1.694-.242.4107-.1613.704-.44.88-.836.176-.4107.264-.9827.264-1.716 0-.8507-.066-1.5033-.198-1.958-.1173-.4547-.374-.77-.77-.946-.396-.176-1.012-.264-1.848-.264h-1.166v5.962zM62.7023 33.974v-17.82h2.442v17.82h-2.442zM72.4933 34.172c-1.2613 0-2.244-.264-2.948-.792-.6893-.528-1.1733-1.2393-1.452-2.134-.264-.8947-.396-1.892-.396-2.992v-6.292c0-1.2027.132-2.2513.396-3.146.2787-.8947.7627-1.584 1.452-2.068.704-.4987 1.6867-.748 2.948-.748 1.1147 0 1.9947.2053 2.64.616.66.4107 1.1294.9973 1.408 1.76.2934.7627.44 1.6793.44 2.75v1.408h-2.354V21.28c0-.66-.0366-1.2393-.11-1.738-.0586-.5133-.2346-.9093-.528-1.188-.2933-.2787-.7846-.418-1.474-.418-.704 0-1.2173.154-1.54.462-.3226.2933-.5353.7187-.638 1.276-.088.5427-.132 1.1807-.132 1.914v7.062c0 .8947.0734 1.606.22 2.134.1467.5133.3887.88.726 1.1.3374.22.792.33 1.364.33.6747 0 1.1587-.1467 1.452-.44.2934-.308.4767-.726.55-1.254.0734-.528.11-1.144.11-1.848v-1.32h2.354v1.32c0 1.0853-.132 2.046-.396 2.882-.264.8213-.7186 1.4667-1.364 1.936-.6453.4547-1.5546.682-2.728.682zM83.9036 34.172c-1.2027 0-2.1633-.2347-2.882-.704-.7187-.4693-1.232-1.1367-1.54-2.002-.308-.88-.462-1.9067-.462-3.08v-6.754c0-1.1733.154-2.178.462-3.014.3227-.8507.836-1.496 1.54-1.936.7187-.4547 1.6793-.682 2.882-.682s2.156.2273 2.86.682c.704.4547 1.21 1.1 1.518 1.936.3227.836.484 1.8407.484 3.014v6.776c0 1.1587-.1613 2.1707-.484 3.036-.308.8653-.814 1.54-1.518 2.024-.704.4693-1.6573.704-2.86.704zm0-1.958c.66 0 1.1587-.132 1.496-.396.3373-.2787.5647-.66.682-1.144.1173-.4987.176-1.078.176-1.738v-7.81c0-.66-.0587-1.2247-.176-1.694-.1173-.484-.3447-.8507-.682-1.1-.3373-.264-.836-.396-1.496-.396s-1.166.132-1.518.396c-.3373.2493-.5647.616-.682 1.1-.1173.4693-.176 1.034-.176 1.694v7.81c0 .66.0587 1.2393.176 1.738.1173.484.3447.8653.682 1.144.352.264.858.396 1.518.396zM90.901 33.974v-2.618h2.354v2.618h-2.354zM95.3555 33.974v-17.82h2.486v16.038h4.5535v1.782h-7.0395zM104.232 33.974v-17.82h2.442v17.82h-2.442zM109.557 33.974v-17.82h1.694l5.06 11.836V16.154h2.068v17.82h-1.584l-5.126-12.166v12.166h-2.112zM121.18 33.974v-17.82h2.486v8.404l4.092-8.404h2.31l-3.52 7.854 4.092 9.966h-2.42l-3.41-8.36-1.144 2.068v6.292h-2.486z" fill="#fff"/>
</svg>

<svg width="153" height="50" viewBox="0 0 153 50" fill="none" xmlns="http://www.w3.org/2000/svg">
<path d="M7.07524 7.9884C7.85533 3.93193 11.4048 1 15.5356 1H142.876C148.286 1 152.358 5.92904 151.336 11.2424L145.419 42.0116C144.639 46.0681 141.089 49 136.958 49H9.61844C4.20774 49 0.13628 44.071 1.15808 38.7576L7.07524 7.9884Z" fill="black" stroke="#D900FC" stroke-width="2"/>
<ellipse cx="28.1316" cy="25" rx="9" ry="9" fill="white"/>
<path d="M52 33.974V16.154H56.422C57.4927 16.154 58.3433 16.352 58.974 16.748C59.6193 17.1293 60.0887 17.6867 60.382 18.42C60.6753 19.1533 60.822 20.0407 60.822 21.082C60.822 22.0207 60.6533 22.8347 60.316 23.524C59.9933 24.2133 59.5093 24.7487 58.864 25.13C58.2187 25.4967 57.412 25.68 56.444 25.68H54.486V33.974H52ZM54.486 23.898H55.63C56.3487 23.898 56.9133 23.8173 57.324 23.656C57.7347 23.4947 58.028 23.216 58.204 22.82C58.38 22.4093 58.468 21.8373 58.468 21.104C58.468 20.2533 58.402 19.6007 58.27 19.146C58.1527 18.6913 57.896 18.376 57.5 18.2C57.104 18.024 56.488 17.936 55.652 17.936H54.486V23.898Z" fill="white"/>
<path d="M62.7023 33.974V16.154H65.1443V33.974H62.7023Z" fill="white"/>
<path d="M72.4933 34.172C71.232 34.172 70.2493 33.908 69.5453 33.38C68.856 32.852 68.372 32.1407 68.0933 31.246C67.8293 30.3513 67.6973 29.354 67.6973 28.254V21.962C67.6973 20.7593 67.8293 19.7107 68.0933 18.816C68.372 17.9213 68.856 17.232 69.5453 16.748C70.2493 16.2493 71.232 16 72.4933 16C73.608 16 74.488 16.2053 75.1333 16.616C75.7933 17.0267 76.2627 17.6133 76.5413 18.376C76.8347 19.1387 76.9813 20.0553 76.9813 21.126V22.534H74.6273V21.28C74.6273 20.62 74.5907 20.0407 74.5173 19.542C74.4587 19.0287 74.2827 18.6327 73.9893 18.354C73.696 18.0753 73.2047 17.936 72.5153 17.936C71.8113 17.936 71.298 18.09 70.9753 18.398C70.6527 18.6913 70.44 19.1167 70.3373 19.674C70.2493 20.2167 70.2053 20.8547 70.2053 21.588V28.65C70.2053 29.5447 70.2787 30.256 70.4253 30.784C70.572 31.2973 70.814 31.664 71.1513 31.884C71.4887 32.104 71.9433 32.214 72.5153 32.214C73.19 32.214 73.674 32.0673 73.9673 31.774C74.2607 31.466 74.444 31.048 74.5173 30.52C74.5907 29.992 74.6273 29.376 74.6273 28.672V27.352H76.9813V28.672C76.9813 29.7573 76.8493 30.718 76.5853 31.554C76.3213 32.3753 75.8667 33.0207 75.2213 33.49C74.576 33.9447 73.6667 34.172 72.4933 34.172Z" fill="white"/>
<path d="M83.9036 34.172C82.7009 34.172 81.7403 33.9373 81.0216 33.468C80.3029 32.9987 79.7896 32.3313 79.4816 31.466C79.1736 30.586 79.0196 29.5593 79.0196 28.386V21.632C79.0196 20.4587 79.1736 19.454 79.4816 18.618C79.8043 17.7673 80.3176 17.122 81.0216 16.682C81.7403 16.2273 82.7009 16 83.9036 16C85.1063 16 86.0596 16.2273 86.7636 16.682C87.4676 17.1367 87.9736 17.782 88.2816 18.618C88.6043 19.454 88.7656 20.4587 88.7656 21.632V28.408C88.7656 29.5667 88.6043 30.5787 88.2816 31.444C87.9736 32.3093 87.4676 32.984 86.7636 33.468C86.0596 33.9373 85.1063 34.172 83.9036 34.172ZM83.9036 32.214C84.5636 32.214 85.0623 32.082 85.3996 31.818C85.7369 31.5393 85.9643 31.158 86.0816 30.674C86.1989 30.1753 86.2576 29.596 86.2576 28.936V21.126C86.2576 20.466 86.1989 19.9013 86.0816 19.432C85.9643 18.948 85.7369 18.5813 85.3996 18.332C85.0623 18.068 84.5636 17.936 83.9036 17.936C83.2436 17.936 82.7376 18.068 82.3856 18.332C82.0483 18.5813 81.8209 18.948 81.7036 19.432C81.5863 19.9013 81.5276 20.466 81.5276 21.126V28.936C81.5276 29.596 81.5863 30.1753 81.7036 30.674C81.8209 31.158 82.0483 31.5393 82.3856 31.818C82.7376 32.082 83.2436 32.214 83.9036 32.214Z" fill="white"/>
<path d="M90.901 33.974V31.356H93.255V33.974H90.901Z" fill="white"/>
<path d="M95.3555 33.974V16.154H97.8415V32.192H102.395V33.974H95.3555Z" fill="white"/>
<path d="M104.232 33.974V16.154H106.674V33.974H104.232Z" fill="white"/>
<path d="M109.557 33.974V16.154H111.251L116.311 27.99V16.154H118.379V33.974H116.795L111.669 21.808V33.974H109.557Z" fill="white"/>
<path d="M121.18 33.974V16.154H123.666V24.558L127.758 16.154H130.068L126.548 24.008L130.64 33.974H128.22L124.81 25.614L123.666 27.682V33.974H121.18Z" fill="white"/>
</svg>
